packages/snap/images/gas.svg

<svg stroke-miterlimit="10" style="fill-rule:nonzero;clip-rule:evenodd;stroke-linecap:round;stroke-linejoin:round" viewBox="0 0 512 512" xml:space="preserve" xmlns="http://www.w3.org/2000/svg"><path d="M357.922 368.561H96.402c-4.48 0-8.399 3.922-8.399 8.398V415.6c0 4.481 3.922 8.399 8.399 8.399h261.52c4.48 0 8.398-3.922 8.398-8.399v-38.641c.004-4.476-3.918-8.398-8.394-8.398h-.004Zm-8.403 38.641h-244.72v-21.84h244.72v21.84Zm-52.641-165.76c4.481 0 8.399-3.922 8.399-8.398l.004-97.441c0-4.481-3.922-8.399-8.399-8.399h-140c-4.48 0-8.398 3.922-8.398 8.399v97.441c0 4.48 3.922 8.398 8.398 8.398h139.996Zm-131.04-97.441h123.2v80.641h-123.2v-80.641Zm208.32-52.078-1.121-1.121c-3.922-2.801-8.961-1.68-11.762 1.68-2.8 3.921-1.679 8.96 1.68 11.762l1.121 1.121c12.32 8.961 22.398 20.719 29.121 34.16h-1.68c-14.559 0-26.32 11.762-26.32 26.32s11.762 26.32 26.32 26.32c5.602 0 10.641-1.68 15.121-5.039v134.96c0 7.281-6.16 13.441-13.441 13.441-7.28 0-13.441-6.16-13.441-13.441l.004-64.406c0-22.961-16.801-42.559-38.641-46.48V96.4c0-4.48-3.922-8.399-8.398-8.399h-211.12c-4.481 0-8.398 3.922-8.398 8.399v260.96h16.801L130 104.8h194.88v252.56h16.801v-128.8c12.879 3.922 21.84 15.121 21.84 29.121v63.84c0 16.801 13.441 30.238 30.238 30.238 16.801 0 30.238-13.441 30.238-30.238v-128.8c.004-39.758-18.477-77.277-49.836-100.8l-.003.002Zm17.918 82.879c-5.039 0-9.519-3.922-9.519-9.52 0-5.601 3.922-9.519 9.519-9.519 5.602 0 9.52 3.922 9.52 9.519.004 5.598-4.477 9.52-9.52 9.52Z"/></svg>

<?xml version="1.0" encoding="UTF-8" standalone="no"?>
<!DOCTYPE svg PUBLIC "-//W3C//DTD SVG 1.1//EN" "http://www.w3.org/Graphics/SVG/1.1/DTD/svg11.dtd">
<!-- Created with Vectornator (http://vectornator.io/) -->
<svg stroke-miterlimit="10" style="fill-rule:nonzero;clip-rule:evenodd;stroke-linecap:round;stroke-linejoin:round;" version="1.1" viewBox="0 0 512 512" xml:space="preserve" xmlns="http://www.w3.org/2000/svg" xmlns:xlink="http://www.w3.org/1999/xlink">
<defs/>
<g id="Layer-1">
<path d="M357.922 368.561L96.4017 368.561C91.9212 368.561 88.0033 372.483 88.0033 376.959L88.0033 415.6C88.0033 420.081 91.9252 423.999 96.4017 423.999L357.922 423.999C362.402 423.999 366.32 420.077 366.32 415.6L366.32 376.959C366.324 372.483 362.402 368.561 357.926 368.561L357.922 368.561ZM349.519 407.202L104.799 407.202L104.799 385.362L349.519 385.362L349.519 407.202ZM296.878 241.442C301.359 241.442 305.277 237.52 305.277 233.044L305.281 135.603C305.281 131.122 301.359 127.204 296.882 127.204L156.882 127.204C152.402 127.204 148.484 131.126 148.484 135.603L148.484 233.044C148.484 237.524 152.406 241.442 156.882 241.442L296.878 241.442ZM165.838 144.001L289.038 144.001L289.038 224.642L165.838 224.642L165.838 144.001ZM374.158 91.9229L373.037 90.8018C369.115 88.001 364.076 89.1221 361.275 92.4815C358.475 96.4034 359.596 101.442 362.955 104.244L364.076 105.365C376.396 114.326 386.474 126.084 393.197 139.525L391.517 139.525C376.958 139.525 365.197 151.287 365.197 165.845C365.197 180.403 376.959 192.165 391.517 192.165C397.119 192.165 402.158 190.485 406.638 187.126L406.638 193.286L406.638 322.086C406.638 329.367 400.478 335.527 393.197 335.527C385.917 335.527 379.756 329.367 379.756 322.086L379.76 257.68C379.76 234.719 362.959 215.121 341.119 211.2L341.119 96.3997C341.119 91.9192 337.197 88.0013 332.721 88.0013L121.601 88.0013C117.12 88.0013 113.203 91.9232 113.203 96.3997L113.203 357.36L130.004 357.36L130 104.8L324.88 104.8L324.88 357.36L341.681 357.36L341.681 228.56C354.56 232.482 363.521 243.681 363.521 257.681L363.521 321.521C363.521 338.322 376.962 351.759 393.759 351.759C410.56 351.759 423.997 338.318 423.997 321.521L423.997 192.721C424.001 152.963 405.52 115.444 374.161 91.9207L374.158 91.9229ZM392.076 174.802C387.037 174.802 382.557 170.88 382.557 165.282C382.557 159.681 386.479 155.763 392.076 155.763C397.678 155.763 401.596 159.685 401.596 165.282C401.6 170.88 397.119 174.802 392.076 174.802Z" fill="#000000" fill-rule="nonzero" opacity="1" stroke="none"/>
</g>
</svg>
